icons/indesign-filled.svg

<svg width="256" height="256" viewBox="0 0 256 256" fill="none" xmlns="http://www.w3.org/2000/svg">
<path d="M196 0H60C26.8629 0 0 26.8629 0 60V196C0 229.137 26.8629 256 60 256H196C229.137 256 256 229.137 256 196V60C256 26.8629 229.137 0 196 0Z" fill="#49021F"/>
<path d="M94.3 79.908V182.508C94.3 183.608 93.8 184.108 92.9 184.108H73.3C72.4 184.108 72 183.608 72 182.508V79.908C72 79.008 72.5 78.608 73.4 78.608H92.9C93.0516 78.5841 93.2065 78.5914 93.3552 78.6293C93.5039 78.6672 93.6433 78.735 93.765 78.8286C93.8866 78.9221 93.9879 79.0395 94.0627 79.1735C94.1375 79.3075 94.1842 79.4554 94.2 79.608C94.2378 79.6475 94.2664 79.6949 94.2837 79.7468C94.301 79.7987 94.3065 79.8537 94.3 79.908Z" fill="#FF3366"/>
<path d="M151.9 185.708C144.487 185.83 137.142 184.292 130.4 181.208C124.128 178.275 118.871 173.541 115.3 167.608C111.6 161.508 109.8 153.908 109.8 144.808C109.699 137.408 111.599 130.117 115.3 123.708C119.095 117.194 124.591 111.836 131.2 108.208C138.2 104.308 146.6 102.408 156.5 102.408C157.201 102.4 157.903 102.434 158.6 102.508C159.5 102.608 160.5 102.608 161.7 102.708V71.1081C161.7 70.4081 162 70.0081 162.7 70.0081H183C183.224 69.9778 183.451 70.033 183.637 70.1627C183.822 70.2924 183.952 70.4871 184 70.7081V166.108C184 167.908 184.1 169.908 184.2 172.108C184.3 174.308 184.5 176.208 184.6 177.908C184.621 178.246 184.536 178.582 184.357 178.869C184.178 179.156 183.913 179.379 183.6 179.508C178.362 181.709 172.895 183.319 167.3 184.308C162.218 185.229 157.065 185.698 151.9 185.708ZM161.7 165.708V121.708C160.81 121.493 159.908 121.326 159 121.208C157.9 121.108 156.8 121.008 155.7 121.008C151.78 120.964 147.906 121.855 144.4 123.608C140.983 125.311 138.057 127.858 135.9 131.008C133.7 134.208 132.6 138.508 132.6 143.708C132.513 147.218 133.09 150.713 134.3 154.008C135.267 156.673 136.803 159.096 138.8 161.108C140.728 162.948 143.055 164.317 145.6 165.108C148.279 165.985 151.081 166.424 153.9 166.408C155.4 166.408 156.8 166.308 158.1 166.208C159.322 166.302 160.55 166.132 161.7 165.708Z" fill="#FF3366"/>
</svg>

<svg xmlns="http://www.w3.org/2000/svg" width="256" height="256" fill="none"><path fill="#49021F" d="M196 0H60C26.863 0 0 26.863 0 60v136c0 33.137 26.863 60 60 60h136c33.137 0 60-26.863 60-60V60c0-33.137-26.863-60-60-60"/><path fill="#F36" d="M94.3 79.908v102.6c0 1.1-.5 1.6-1.4 1.6H73.3c-.9 0-1.3-.5-1.3-1.6v-102.6c0-.9.5-1.3 1.4-1.3h19.5a1.13 1.13 0 0 1 1.3 1 .37.37 0 0 1 .1.3m57.6 105.8a49.7 49.7 0 0 1-21.5-4.5 34.86 34.86 0 0 1-15.1-13.6c-3.7-6.1-5.5-13.7-5.5-22.8a41.1 41.1 0 0 1 5.5-21.1 41.53 41.53 0 0 1 15.9-15.5c7-3.9 15.4-5.8 25.3-5.8q1.053-.011 2.1.1c.9.1 1.9.1 3.1.2v-31.6c0-.7.3-1.1 1-1.1H183a.9.9 0 0 1 1 .7v95.4c0 1.8.1 3.8.2 6s.3 4.1.4 5.8a1.63 1.63 0 0 1-1 1.6 76.4 76.4 0 0 1-16.3 4.8 87.3 87.3 0 0 1-15.4 1.4m9.8-20v-44a26 26 0 0 0-2.7-.5c-1.1-.1-2.2-.2-3.3-.2a24.65 24.65 0 0 0-11.3 2.6 22.4 22.4 0 0 0-8.5 7.4c-2.2 3.2-3.3 7.5-3.3 12.7-.087 3.51.49 7.005 1.7 10.3a19.5 19.5 0 0 0 4.5 7.1 17.3 17.3 0 0 0 6.8 4 26.2 26.2 0 0 0 8.3 1.3c1.5 0 2.9-.1 4.2-.2a8.5 8.5 0 0 0 3.6-.5"/></svg>
